www/assets/icons/not_listed_location.svg

<svg xmlns="http://www.w3.org/2000/svg" width="24" height="24" viewBox="0 0 24 24" fill='currentColor'><path d="M12 2C8.14 2 5 5.14 5 9c0 5.25 7 13 7 13s7-7.75 7-13c0-3.86-3.14-7-7-7m.88 13.75h-1.75V14h1.75zm0-2.87h-1.75c0-2.84 2.62-2.62 2.62-4.38 0-.96-.79-1.75-1.75-1.75s-1.75.79-1.75 1.75H8.5C8.5 6.57 10.07 5 12 5s3.5 1.57 3.5 3.5c0 2.19-2.62 2.41-2.62 4.38"/></svg>

<svg width="24" height="24" viewBox="0 0 24 24" xmlns="http://www.w3.org/2000/svg" fill='currentColor'><path d="M12 2C8.14 2 5 5.14 5 9C5 14.25 12 22 12 22C12 22 19 14.25 19 9C19 5.14 15.86 2 12 2ZM12.88 15.75H11.13V14H12.88V15.75ZM12.88 12.88H11.13C11.13 10.04 13.75 10.26 13.75 8.5C13.75 7.54 12.96 6.75 12 6.75C11.04 6.75 10.25 7.54 10.25 8.5H8.5C8.5 6.57 10.07 5 12 5C13.93 5 15.5 6.57 15.5 8.5C15.5 10.69 12.88 10.91 12.88 12.88Z"/></svg>
